svg/u1f985.svg

<svg viewBox="0 0 128 128" xmlns="http://www.w3.org/2000/svg">
  <path d="M44.99,69.48c0,0,11.83-0.7,10-16.75c-1.83-16.05-7.6-16.33-9.85-24.35 c-2.25-8.02-2.3-16.03-3.38-16.61c-0.83-0.45-7.32,4.5-7.32,4.5s-6.01,5.05-6.48,3.66c-0.66-1.97,5.07-11.12,5.91-12.95 c0.84-1.83,0.49-4.83-3.38-2.53C27.02,6.5,6.27,23.31,6.7,36.4s16.05,27.73,16.05,27.73l9.43-9.43L44.99,69.48z" fill="#4F3B37"/>
  <linearGradient id="SVGID_1_" gradientUnits="userSpaceOnUse" x1="68.597" x2="76.8784" y1="90.4617" y2="115.6414">
    <stop offset="0.2074" stop-color="#AC8979"/>
    <stop offset="0.309" stop-color="#B59482"/>
    <stop offset="0.4853" stop-color="#CDB099"/>
    <stop offset="0.7137" stop-color="#F4DDBE"/>
    <stop offset="0.7707" stop-color="#FFEAC8"/>
  </linearGradient>
  <path d="M67.89,90.69c0,0,10.89,6.29,13.7,8.45s7.13,5.63,7.13,5.63s-1.97,4.97-3.94,6.19 s-4.5,1.6-4.5,1.6s-3.38,3.57-5.73,3.75s-4.32-1.03-4.32-1.03s-3.1,1.13-4.41,1.03c-1.31-0.09-5.16-3.1-5.16-3.1L67.89,90.69z" fill="url(#SVGID_1_)"/>
  <path d="M51.18,61.6c0,0,5.16,0.47,7.7-8.07c2.53-8.54,1.97-15.3,6.85-20.37s9.67-6.1,14.92-6.48 c5.26-0.38,25.15-1.13,30.13-1.5c4.97-0.38,9.1-1.69,9.57-0.66c0.35,0.77-5.54,10.79-5.54,10.79s-13.23,0.19-13.51,3 c-0.28,2.82,9.88,1.29,9.95,2.72c0.1,1.97-8.54,12.95-11.64,16.05c-3.1,3.1-5.63,3.47-6.66,5.07s-5.54,15.39-10.89,20.27 c-5.35,4.88-12.11,5.26-12.11,5.26s4.04,5.63,2.72,10.42c-1.31,4.79-3.66,11.12-6.48,14.41c-1.99,2.33-5.12,4.36-8.26,2.11 c-3.5-2.51-3.28-7.6-2.44-10.7c0.84-3.1,0.38-5.16,0.38-5.16s-5,5.21-7.98,7.79c-3.14,2.72-6.05,7.23-10.14,2.25 c-4.58-5.57,0.33-8.82,2.21-11.26c1.88-2.44,2.58-3.47,2.58-3.47l-6.76-14.27L51.18,61.6z" fill="#70534C"/>
  <path d="M24.65,52.94c-2.05,2.05-7.46,7.58-0.28,13.77s7.39,9.88,9.29,12.48c1.91,2.62,3.45,5.14,4.65,6.41 c1.2,1.27,4.29,3.87,5.28,3.59c0.99-0.28-1.06-7.74-0.56-8.17s5.98,3.38,6.83,2.82c0.89-0.6-0.99-7.81-0.56-8.17 c0.42-0.35,5.33,3.02,5.98,2.46c0.92-0.77-2.82-15.7-3.17-16.47c-0.19-0.41-5.33-4.21-9.71-7.18c-3.9-2.64-5.49-3.87-9.15-4.36 C29.87,49.67,26.19,51.39,24.65,52.94z" fill="#FFEAC8"/>
  <path d="M23.66,75.75c0.42-1.06,0.92-2.22,3.66-4.26c2.75-2.04,7.07-5.07,7.18-6.02 c0.11-0.88-5.75-0.31-7.51-0.45c-1.76-0.14-3.75-0.4-4.88-1.31c-1.01-0.82-1.03-1.6-1.03-1.6s-4.3,2.96-4.81,6.38 c-0.56,3.8,0.7,6.48,3.24,8.31s3.6,2.32,4.26,1.97C24.58,78.35,23.66,75.75,23.66,75.75z" fill="#FFB903"/>
  <path d="M21.85,74.51c0.14-1.02,0.5-3.12,2.65-5.23c1.83-1.8,5-4.29,5.88-4.29c0.88,0,2.46,0,2.46,0 s-0.7,1.44-1.97,2.25c-1.27,0.81-2.87,2.05-4.89,3.84c-2.11,1.87-2.29,4.61-2.29,4.61s0.77,2.22,0.18,2.96 C23.34,79.28,21.71,75.54,21.85,74.51z" fill="#FF8E01"/>
  <path d="M29.01,61.25c0.08,0.66,0.6,1.97,2.43,1.58c1.52-0.32,2.64-2.39,2.15-3.87 c-0.4-1.19-1.37-1.44-2.04-1.02C30.88,58.36,28.83,59.81,29.01,61.25z" fill="#302F2F"/>
  <path d="M79.95,111.34c-0.22,0.13-1.83,2.96-4.79,3.71c-2.96,0.75-4.13-0.75-4.74-0.75s-2.7,1.29-4.62,1.1 c-1.5-0.15-3.97-2.28-3.97-2.28l-1.03,1.64c0,0,2.39,2.58,5.07,2.72c2.67,0.14,4.36-1.03,4.36-1.03s2.63,1.34,5.4,0.8 c3.85-0.75,5.3-4.13,5.3-4.13s3.19-0.33,5.3-1.92c2.11-1.6,4.01-5.77,2.6-6.43s-2.18,2.86-3.87,4.22S80.56,110.97,79.95,111.34z" fill="#70534C"/>
  <path d="M25.89,111.47c-0.52-1.12,1.6-6.65,7.23-6.46s8.21,4.36,7.7,8.49c-0.52,4.13-3.24,5.44-3.89,4.97 c-0.66-0.47-1.36-3.43-1.36-3.43l-2.86-3.61C32.69,111.44,26.97,113.77,25.89,111.47z" fill="#FFB903"/>
  <path d="M47.66,117.85c-0.77-1.5,0.87-4.79,3.19-5.99c2.87-1.49,4.99-1.57,8.26,1.07 c4.39,3.54,0.94,9.84-1.01,10.65c-2.71,1.13-2.04,0.01-1.99-1.35c0.05-1.36-1.22-4.83-1.22-4.83L47.66,117.85z" fill="#FFB903"/>
  <path d="M36.92,112.46c0.4,1.49,0.77,5.91-0.21,5.84c-0.66-0.05-1.53-2.63-1.9-3.61 c-0.37-0.98-2.75-2.42-3.64-2.46c-0.89-0.05-3.97,0.59-4.06,0c-0.19-1.16,3.5-2.91,4.95-2.86C33.33,109.4,36.49,110.87,36.92,112.46 z" fill="#F4821E"/>
  <path d="M47.62,117.63c0.05,1.07,2.96,0.33,4.13,0.47c1.17,0.14,2.65,0.72,3.31,2.08 c0.31,0.64,0.59,3.73,1.24,3.78c1.22,0.09,1.55-4.11,1.41-4.49c-0.42-1.14-2.06-3.97-5.26-4.28 C50.76,115.01,47.59,117.07,47.62,117.63z" fill="#F4821E"/>
</svg>

<svg viewBox="0 0 128 128" xmlns="http://www.w3.org/2000/svg">
  <defs>
    <linearGradient id="SVGID_1_" gradientUnits="userSpaceOnUse" x1="68.597" x2="76.8784" y1="90.4617" y2="115.6414">
      <stop offset="0.2074" stop-color="#AC8979"/>
      <stop offset="0.309" stop-color="#B59482"/>
      <stop offset="0.4853" stop-color="#CDB099"/>
      <stop offset="0.7137" stop-color="#F4DDBE"/>
      <stop offset="0.7707" stop-color="#FFEAC8"/>
    </linearGradient>
  </defs>
  <path d="M44.99,69.48 C44.99,69.48 56.82,68.78 54.99,52.73 C53.16,36.68 47.39,36.4 45.14,28.38 C42.89,20.36 42.84,12.35 41.76,11.77 C40.93,11.32 34.44,16.27 34.44,16.27 C34.44,16.27 28.43,21.32 27.96,19.93 C27.3,17.96 33.03,8.81 33.87,6.98 C34.71,5.15 34.36,2.15 30.49,4.45 C27.02,6.5 6.27,23.31 6.7,36.4 C7.13,49.49 22.75,64.13 22.75,64.13 L32.18,54.7 L44.99,69.48 Z" fill="#4F3B37"/>
  <path d="M67.89,90.69 C67.89,90.69 78.78,96.98 81.59,99.14 C84.4,101.3 88.72,104.77 88.72,104.77 C88.72,104.77 86.75,109.74 84.78,110.96 C82.81,112.18 80.28,112.56 80.28,112.56 C80.28,112.56 76.9,116.13 74.55,116.31 C72.2,116.49 70.23,115.28 70.23,115.28 C70.23,115.28 67.13,116.41 65.82,116.31 C64.51,116.22 60.66,113.21 60.66,113.21 L67.89,90.69 Z" fill="url(#SVGID_1_)"/>
  <path d="M51.18,61.6 C51.18,61.6 56.34,62.07 58.88,53.53 C61.41,44.99 60.85,38.23 65.73,33.16 C70.61,28.09 75.4,27.06 80.65,26.68 C85.91,26.3 105.8,25.55 110.78,25.18 C115.75,24.8 119.88,23.49 120.35,24.52 C120.7,25.29 114.81,35.31 114.81,35.31 C114.81,35.31 101.58,35.5 101.3,38.31 C101.02,41.13 111.18,39.6 111.25,41.03 C111.35,43 102.71,53.98 99.61,57.08 C96.51,60.18 93.98,60.55 92.95,62.15 C91.92,63.75 87.41,77.54 82.06,82.42 C76.71,87.3 69.95,87.68 69.95,87.68 C69.95,87.68 73.99,93.31 72.67,98.1 C71.36,102.89 69.01,109.22 66.19,112.51 C64.2,114.84 61.07,116.87 57.93,114.62 C54.43,112.11 54.65,107.02 55.49,103.92 C56.33,100.82 55.87,98.76 55.87,98.76 C55.87,98.76 50.87,103.97 47.89,106.55 C44.75,109.27 41.84,113.78 37.75,108.8 C33.17,103.23 38.08,99.98 39.96,97.54 C41.84,95.1 42.54,94.07 42.54,94.07 L35.78,79.8 L51.18,61.6 Z" fill="#70534C"/>
  <path d="M24.65,52.94 C22.6,54.99 17.19,60.52 24.37,66.71 C31.55,72.9 31.76,76.59 33.66,79.19 C35.57,81.81 37.11,84.33 38.31,85.6 C39.51,86.87 42.6,89.47 43.59,89.19 C44.58,88.91 42.53,81.45 43.03,81.02 C43.53,80.59 49.01,84.4 49.86,83.84 C50.75,83.24 48.87,76.03 49.3,75.67 C49.72,75.32 54.63,78.69 55.28,78.13 C56.2,77.36 52.46,62.43 52.11,61.66 C51.92,61.25 46.78,57.45 42.4,54.48 C38.5,51.84 36.91,50.61 33.25,50.12 C29.87,49.67 26.19,51.39 24.65,52.94 Z" fill="#FFEAC8"/>
  <path d="M23.66,75.75 C24.08,74.69 24.58,73.53 27.32,71.49 C30.07,69.45 34.39,66.42 34.5,65.47 C34.61,64.59 28.75,65.16 26.99,65.02 C25.23,64.88 23.24,64.62 22.11,63.71 C21.1,62.89 21.08,62.11 21.08,62.11 C21.08,62.11 16.78,65.07 16.27,68.49 C15.71,72.29 16.97,74.97 19.51,76.8 C22.05,78.63 23.11,79.12 23.77,78.77 C24.58,78.35 23.66,75.75 23.66,75.75 Z" fill="#FFB903"/>
  <path d="M21.85,74.51 C21.99,73.49 22.35,71.39 24.5,69.28 C26.33,67.48 29.5,64.99 30.38,64.99 C31.26,64.99 32.84,64.99 32.84,64.99 C32.84,64.99 32.14,66.43 30.87,67.24 C29.6,68.05 28,69.29 25.98,71.08 C23.87,72.95 23.69,75.69 23.69,75.69 C23.69,75.69 24.46,77.91 23.87,78.65 C23.34,79.28 21.71,75.54 21.85,74.51 Z" fill="#FF8E01"/>
  <path d="M29.01,61.25 C29.09,61.91 29.61,63.22 31.44,62.83 C32.96,62.51 34.08,60.44 33.59,58.96 C33.19,57.77 32.22,57.52 31.55,57.94 C30.88,58.36 28.83,59.81 29.01,61.25 Z" fill="#302F2F"/>
  <path d="M79.95,111.34 C79.73,111.47 78.12,114.3 75.16,115.05 C72.2,115.8 71.03,114.3 70.42,114.3 C69.81,114.3 67.72,115.59 65.8,115.4 C64.3,115.25 61.83,113.12 61.83,113.12 L60.8,114.76 C60.8,114.76 63.19,117.34 65.87,117.48 C68.54,117.62 70.23,116.45 70.23,116.45 C70.23,116.45 72.86,117.79 75.63,117.25 C79.48,116.5 80.93,113.12 80.93,113.12 C80.93,113.12 84.12,112.79 86.23,111.2 C88.34,109.6 90.24,105.43 88.83,104.77 C87.42,104.11 86.65,107.63 84.96,108.99 C83.27,110.35 80.56,110.97 79.95,111.34 Z" fill="#70534C"/>
  <path d="M25.89,111.47 C25.37,110.35 27.49,104.82 33.12,105.01 C38.75,105.2 41.33,109.37 40.82,113.5 C40.3,117.63 37.58,118.94 36.93,118.47 C36.27,118 35.57,115.04 35.57,115.04 L32.71,111.43 C32.69,111.44 26.97,113.77 25.89,111.47 Z" fill="#FFB903"/>
  <path d="M47.66,117.85 C46.89,116.35 48.53,113.06 50.85,111.86 C53.72,110.37 55.84,110.29 59.11,112.93 C63.5,116.47 60.05,122.77 58.1,123.58 C55.39,124.71 56.06,123.59 56.11,122.23 C56.16,120.87 54.89,117.4 54.89,117.4 L47.66,117.85 Z" fill="#FFB903"/>
  <path d="M36.92,112.46 C37.32,113.95 37.69,118.37 36.71,118.3 C36.05,118.25 35.18,115.67 34.81,114.69 C34.44,113.71 32.06,112.27 31.17,112.23 C30.28,112.18 27.2,112.82 27.11,112.23 C26.92,111.07 30.61,109.32 32.06,109.37 C33.33,109.4 36.49,110.87 36.92,112.46 Z" fill="#F4821E"/>
  <path d="M47.62,117.63 C47.67,118.7 50.58,117.96 51.75,118.1 C52.92,118.24 54.4,118.82 55.06,120.18 C55.37,120.82 55.65,123.91 56.3,123.96 C57.52,124.05 57.85,119.85 57.71,119.47 C57.29,118.33 55.65,115.5 52.45,115.19 C50.76,115.01 47.59,117.07 47.62,117.63 Z" fill="#F4821E"/>
</svg>
